X: 354
T: the Praises of Limerick   #2
R: march, air
%S: s:2 b:10(6+4)
B: O'Neill's 1850 #354
Q: "Animated."
O: Mrs.Fitzgerad
Z: Chris Falt, cfalt@trytel.com
N: Compacted via repeats and multiple endings [JC]
N: Compacted by using labels and play order [JC]
P: Play A1A2 BA2
M: C
L: 1/8
K: Gm
d>c "^A"|: B2A2 G3G | AGFD F2 [1 Bc | d2d2 c2Bc | d=efd g2dc :|[2 dc | B2AG ^FGAF |
| G4 HG2 "^B"|[| z2 | d3c db2a | gfdc d2z2 | f3d c2Bc | d=efd g2 "^->A2"dc |]
